X: 9823
T: Denis O'Brien's
R: reel
M: 4/4
K: Gmajor
|:G3A Bd~d2|edgd edge|~d3e ~d2BG|AcBA GEED|
G3A Bd~d2|edge dega|bgag gedB|1 egdB AdBA:|2 egdB ABGA||
|:BFAF ~E3D|B,DGF EGFD|EBBA BGEG|FAdB AGFA:|

